X: 22083
T: Knocknagree, The
R: polka
M: 2/4
K: Gmajor
|:B/G/|B,>D ED|B,D DC/D/|B,D GE|A/B/A/G/ ED|
B,D E/F/E/D/|B,D DC/D/|dB GB|1 A/^A/B/=A/ G:|2 A/^A/B/=A/ G2||
|:de/d/ GB/d/|ed e/f/g/e/|{d/e/}dc/d/ eB|dB AB|
de/d/ GB/d/|ed e/f/g/e/|{d/e/}dB AG/A/|1 BG G2:|2 BG- G||

